src/icons/add-table.svg

<svg xmlns="http://www.w3.org/2000/svg" width="24" height="24" fill="none"><path fill="currentColor" fill-rule="evenodd" d="M8 8h11v6h2V1H1v20h13v-2H8zM6 3H3v3h3zm2 0v3h11V3zM6 8H3v11h3z" clip-rule="evenodd"/><path fill="currentColor" d="M21 16h-2v3h-3v2h3v3h2v-3h3v-2h-3z"/></svg>

<svg width="24" height="24" viewBox="0 0 24 24" fill="none" xmlns="http://www.w3.org/2000/svg">
<path fill-rule="evenodd" clip-rule="evenodd" d="M8 8H19V14H21V1H1V21H14V19H8V8ZM6 3H3V6H6V3ZM8 3V6H19V3H8ZM6 8H3V19H6V8Z" fill="black"/>
<path d="M21 16H19V19H16V21H19V24H21V21H24V19H21V16Z" fill="black"/>
</svg>
